X:5934
T:Sellenger's Round The Beginning of the World     %Tune name
N: Playford, 3rd edition (1657)     %Tune infos
Q:1/4=120     %Tempo
O:England
M:6/8     %Meter
L:1/8     %
K:C
"G"G3 G3/A/B | "C"c3 c3/d/e | "F"d2 c "G"B3/A/B | ("C"c3c3/)B/A | "G"G3 G3/A/B |
"C"c3 c3/d/e | "F"d2 c "G"B3/A/B | ("C"c3c2)  |: d | "Am"e3 "^"e3/d/c |
("Dm"d3d2) c | "G"B3/c/d d3/c/B | "Dm"A3 d2 B | "C"c3/d/c "G"B2 G | "Dm"A3/B/c "G"B2 G |
"F"A2 G "D"^F3/E/F | ("G"G3G2) :|
